X: 14
T: Sancta trinitas
N: Derived from Mou2131-Sancta_trinitas.krn
C: Mouton
%%abc-version 2.0
%%abcx-abcm2ps-target-version 5.9.1 (29 Sep 2008)
%%abc-creator hum2abc beta
%%abcx-conversion-date 2019/02/17 07:22:04
%%abc-edited-by Jesse Rodin
%%abc-edited-by Joel Chapman 2012/1/22
%%abcx-initial-encoding-date 2012/01/22/
%%humdrum-veritas 1933754748
%%humdrum-veritas-data 2422188501
%%linebreak <none>
%%barnumbers 0
L: 1/4
M: 2/1
Q: 1/2=120
V: 1 clef=treble
V: 2 clef=treble
V: 3 clef=treble
V: 4 clef=treble-8
V: 5 clef=bass
V: 6 clef=bass
K: F
[V:1] F8 | 
[V:2] c8 | 
[V:3] C8 | 
[V:4] F8 | 
[V:5] z8 | 
[V:6] F,8 | 
[V:1] F8 | 
[V:2] c8 | 
[V:3] C8 | 
[V:4] A8 | 
[V:5] z8 | 
[V:6] F,8 | 
[V:1] G6G2 | 
[V:2] c6c2 | 
[V:3] E6E2 | 
[V:4] c6c2 | 
[V:5] z8 | 
[V:6] C,6C,2 | 
[V:1] G8 | 
[V:2] c8 | 
[V:3] E8 | 
[V:4] c8 | 
[V:5] z8 | 
[V:6] C,8 | 
[V:1] A8 | 
[V:2] z8 | 
[V:3] F8 | 
[V:4] c8 | 
[V:5] z8 | 
[V:6] F,8- | 
[V:1] A4B4 | 
[V:2] z8 | 
[V:3] F4F4 | 
[V:4] c4d4- | 
[V:5] z8 | 
[V:6] F,4B,,4- | 
[V:1] B2A2A4- | 
[V:2] z8 | 
[V:3] F8 | 
[V:4] d4c4 | 
[V:5] z8 | 
[V:6] B,,4F,4 | 
[V:1] A2GFG4 | 
[V:2] z8 | 
[V:3] D6E2 | 
[V:4] B8 | 
[V:5] z8 | 
[V:6] G,8 | 
[V:1] A4c4- | 
[V:2] c4A4 | 
[V:3] F6ED | 
[V:4] A8 | 
[V:5] z4C4 | 
[V:6] F,8- | 
[V:1] c2B2A4 | 
[V:2] c4c4 | 
[V:3] C4F4 | 
[V:4] z8 | 
[V:5] A,4F,4 | 
[V:6] F,8 | 
[V:1] G4E2F2- | 
[V:2] c3BAGB2 | 
[V:3] E4C2D2- | 
[V:4] z8 | 
[V:5] C6B,2 | 
[V:6] z8 | 
[V:1] FEDCD4 | 
[V:2] c2F2G4- | 
[V:3] DCC4=B,2 | 
[V:4] z8 | 
[V:5] A,4G,4 | 
[V:6] z8 | 
[V:1] C8 | 
[V:2] G4z4 | 
[V:3] C8 | 
[V:4] z4A4 | 
[V:5] z2C2C2F,G, | 
[V:6] z4F,4 | 
[V:1] z8 | 
[V:2] C4D4 | 
[V:3] z8 | 
[V:4] A4F4 | 
[V:5] A,B,C4=B,2 | 
[V:6] F,4D,4 | 
[V:1] z8 | 
[V:2] E4C4- | 
[V:3] z8 | 
[V:4] G3FG2A2- | 
[V:5] C4z2F,2 | 
[V:6] C,3D,E,2F,2 | 
[V:1] z8 | 
[V:2] C2B,2C4- | 
[V:3] z8 | 
[V:4] A2GFG4 | 
[V:5] E,2D,2C,4 | 
[V:6] C,2F,4E,2 | 
[V:1] z4A4 | 
[V:2] C4z2c2 | 
[V:3] z4F4 | 
[V:4] F8 | 
[V:5] z2C2A,2F,G, | 
[V:6] F,8 | 
[V:1] A4F4 | 
[V:2] c4d4 | 
[V:3] F4D4 | 
[V:4] z8 | 
[V:5] A,B,C3=B,=B,A, | 
[V:6] z8 | 
[V:1] G3FG2A2- | 
[V:2] e4c4- | 
[V:3] C3DE2F2 | 
[V:4] z8 | 
[V:5] C6F,2 | 
[V:6] z8 | 
[V:1] A2GFG4 | 
[V:2] c2B2c4 | 
[V:3] C2F4E2 | 
[V:4] z8 | 
[V:5] A,2D2C4 | 
[V:6] z8 | 
[V:1] F3GABc2- | 
[V:2] A4z4 | 
[V:3] F6ED | 
[V:4] z4A4 | 
[V:5] F,8 | 
[V:6] z4F,4 | 
[V:1] cBA4GF | 
[V:2] A4d4 | 
[V:3] C2D4B,2 | 
[V:4] A4F4 | 
[V:5] z8 | 
[V:6] F,4D,4 | 
[V:1] E2G3FED | 
[V:2] e4c4 | 
[V:3] C4z2C2 | 
[V:4] G3FG2A2- | 
[V:5] z8 | 
[V:6] C,6F,2- | 
[V:1] C2F4E2 | 
[V:2] z4c4- | 
[V:3] A,2B,2C4 | 
[V:4] A2GFG4 | 
[V:5] z8 | 
[V:6] F,2E,D,C,4 | 
[V:1] F8 | 
[V:2] c2B2A4 | 
[V:3] C8 | 
[V:4] F4z4 | 
[V:5] z4C,4- | 
[V:6] F,,8 | 
[V:1] z8 | 
[V:2] G2c4A2- | 
[V:3] z8 | 
[V:4] c8 | 
[V:5] C,4A,,4 | 
[V:6] z4F,4- | 
[V:1] z8 | 
[V:2] A2F4G2- | 
[V:3] z8 | 
[V:4] A4B4 | 
[V:5] F,,4B,,4 | 
[V:6] F,4D,4 | 
[V:1] z8 | 
[V:2] G2E3DE2 | 
[V:3] z8 | 
[V:4] G2c3BA2- | 
[V:5] C,4z2C2- | 
[V:6] E,4C,4 | 
[V:1] z8 | 
[V:2] F2D2E2DC | 
[V:3] z8 | 
[V:4] A2GFE2F2- | 
[V:5] C2B,2C2A,2 | 
[V:6] D,4C,2D,2- | 
[V:1] z8 | 
[V:2] D2E2F4 | 
[V:3] z8 | 
[V:4] F2E2D4 | 
[V:5] B,2C2F,4 | 
[V:6] D,2C,4B,,2 | 
[V:1] z8 | 
[V:2] E8 | 
[V:3] z8 | 
[V:4] C3DEFG2 | 
[V:5] z4C,3B,, | 
[V:6] C,D,E,F,G,2E,2 | 
[V:1] z8 | 
[V:2] z2G3AB2 | 
[V:3] z8 | 
[V:4] A2B2c2d2- | 
[V:5] A,,2G,,2C,2B,,2 | 
[V:6] F,2G,2E,2F,2- | 
[V:1] z8 | 
[V:2] AGFEF4 | 
[V:3] z8 | 
[V:4] dcc4=B2 | 
[V:5] F,4z2F,2 | 
[V:6] F,E,D,C,D,4 | 
[V:1] z4G4 | 
[V:2] E4z4 | 
[V:3] z4E4 | 
[V:4] c8 | 
[V:5] G,2A,2G,4 | 
[V:6] C,8 | 
[V:1] A3GA2B2 | 
[V:2] z4z2G2 | 
[V:3] F3EF2D2 | 
[V:4] z8 | 
[V:5] F,3C,F,2G,2 | 
[V:6] z8 | 
[V:1] c4B4- | 
[V:2] E2F2G4 | 
[V:3] C4D3C | 
[V:4] z8 | 
[V:5] A,4G,3A, | 
[V:6] z8 | 
[V:1] B2AGA4 | 
[V:2] F2EDC4- | 
[V:3] D2E2F4 | 
[V:4] z8 | 
[V:5] B,2C2F,4 | 
[V:6] z8 | 
[V:1] G3FG2A2- | 
[V:2] C4z4 | 
[V:3] E6DC | 
[V:4] z8 | 
[V:5] z2C,4F,2- | 
[V:6] z8 | 
[V:1] A2GFG3A | 
[V:2] z8 | 
[V:3] D4C2DC | 
[V:4] z8 | 
[V:5] F,2E,D,E,C,G,2- | 
[V:6] z8 | 
[V:1] B2A4G2 | 
[V:2] z4D4 | 
[V:3] DCB,A,B,4 | 
[V:4] z8 | 
[V:5] G,2F,2G,4 | 
[V:6] z8 | 
[V:1] A8 | 
[V:2] F4C2F2- | 
[V:3] A,8 | 
[V:4] z4z2c2 | 
[V:5] z2D,2F,4 | 
[V:6] z8 | 
[V:1] z8 | 
[V:2] FED4G2- | 
[V:3] z8 | 
[V:4] d3cB3A | 
[V:5] B,,3A,,G,,2G,,2 | 
[V:6] z2F,2G,3F, | 
[V:1] z8 | 
[V:2] GFE4F2- | 
[V:3] z8 | 
[V:4] G2c3BAG | 
[V:5] C,3B,,A,,G,,F,,2 | 
[V:6] E,3D,C,4 | 
[V:1] z8 | 
[V:2] FDF3EE2- | 
[V:3] z8 | 
[V:4] B2A4GF | 
[V:5] z8 | 
[V:6] D,4C,4- | 
[V:1] z8 | 
[V:2] E2DCD2C2 | 
[V:3] z8 | 
[V:4] E2G3FED | 
[V:5] z8 | 
[V:6] C,2B,,A,,B,,2C,2 | 
[V:1] z8 | 
[V:2] c4B4 | 
[V:3] z8 | 
[V:4] C2F4E2 | 
[V:5] z8 | 
[V:6] A,,2G,,F,,G,,4 | 
[V:1] z8 | 
[V:2] A8 | 
[V:3] z4F,4 | 
[V:4] F4z4 | 
[V:5] F,4C4 | 
[V:6] F,,8 | 
[V:1] z4G4 | 
[V:2] z8 | 
[V:3] C8 | 
[V:4] F4c4- | 
[V:5] A,4G,4 | 
[V:6] z4C,4 | 
[V:1] A6G2 | 
[V:2] c4f4- | 
[V:3] A,4D4- | 
[V:4] c4A4 | 
[V:5] z8 | 
[V:6] F,8 | 
[V:1] F3ED4 | 
[V:2] f4B4 | 
[V:3] D2C2B,3A, | 
[V:4] d6c2 | 
[V:5] z4G,,4- | 
[V:6] D,4G,4- | 
[V:1] G6F2 | 
[V:2] d4c4- | 
[V:3] G,8 | 
[V:4] B2A2G4 | 
[V:5] G,,4C,4- | 
[V:6] G,2F,2E,2D,2 | 
[V:1] E3DC4 | 
[V:2] c8 | 
[V:3] G,4C4- | 
[V:4] c6B2 | 
[V:5] C,2D,2E,4 | 
[V:6] C,3B,,A,,2G,,2 | 
[V:1] c6B2 | 
[V:2] z4A4- | 
[V:3] C2B,2A,3G, | 
[V:4] A3GF4 | 
[V:5] F,4C4- | 
[V:6] F,,8 | 
[V:1] A2G2F4 | 
[V:2] A2B2c4 | 
[V:3] F,4F4- | 
[V:4] c8 | 
[V:5] C2B,2A,4 | 
[V:6] F,8 | 
[V:1] B6A2 | 
[V:2] B4z4 | 
[V:3] F4F4 | 
[V:4] d6c2 | 
[V:5] D,3E,F,G,A,G,/A,/ | 
[V:6] B,,3C,D,E,F,2 | 
[V:1] G4F4 | 
[V:2] z8 | 
[V:3] D2E2C4 | 
[V:4] B4A4 | 
[V:5] B,2G,2A,2F,2 | 
[V:6] G,2E,2F,4 | 
[V:1] E4F4- | 
[V:2] z8 | 
[V:3] z2C4B,2 | 
[V:4] G4F4 | 
[V:5] C4z4 | 
[V:6] C,4D,4 | 
[V:1] F2EDE4 | 
[V:2] z4G4 | 
[V:3] C8 | 
[V:4] G8 | 
[V:5] z4C4- | 
[V:6] C,8 | 
[V:1] F8 | 
[V:2] c6A2 | 
[V:3] A,8 | 
[V:4] F8 | 
[V:5] C2B,A,C2D2 | 
[V:6] F,,8 | 
[V:1] z2A2A2G2 | 
[V:2] A2c2c2c2 | 
[V:3] z2F2F2E2 | 
[V:4] z8 | 
[V:5] C2F,2F,2C2 | 
[V:6] z8 | 
[V:1] A2B2c4 | 
[V:2] c2d2e2c2 | 
[V:3] F2D2C4 | 
[V:4] z4z2A2 | 
[V:5] F,2B,2A,4 | 
[V:6] z4z2F,2 | 
[V:1] z8 | 
[V:2] c2c2c2d2 | 
[V:3] z8 | 
[V:4] A2G2A2B2 | 
[V:5] z8 | 
[V:6] F,2E,2F,2D,2 | 
[V:1] z2G2A2G2 | 
[V:2] e2e2c2c2 | 
[V:3] z2E2F2E2 | 
[V:4] c4z4 | 
[V:5] z2C2F,2C2 | 
[V:6] C,4z4 | 
[V:1] A2B2c2d2- | 
[V:2] c2d2e2A2 | 
[V:3] F2D2C2F2- | 
[V:4] z8 | 
[V:5] F,2B,2A,2D2 | 
[V:6] z8 | 
[V:1] d2c4=B2 | 
[V:2] B2A2G4 | 
[V:3] F2E2D4 | 
[V:4] z8 | 
[V:5] B,2C2G,4 | 
[V:6] z8 | 
[V:1] c4z4 | 
[V:2] z2C2C2C2 | 
[V:3] C8 | 
[V:4] z2A2A2G2 | 
[V:5] z8 | 
[V:6] z2F,2F,2E,2 | 
[V:1] z8 | 
[V:2] C2D2E2A2- | 
[V:3] z8 | 
[V:4] A2B2c2d2- | 
[V:5] z2F,2G,2F,G, | 
[V:6] F,2D,2C,2F,2- | 
[V:1] z8 | 
[V:2] AGFEF4 | 
[V:3] z8 | 
[V:4] dcc4=B2 | 
[V:5] A,B,C2F,4 | 
[V:6] F,E,D,C,D,4 | 
[V:1] z2G2A4 | 
[V:2] E2c2c3d | 
[V:3] z2E2F4 | 
[V:4] c4z4 | 
[V:5] z2C2A,2F,2 | 
[V:6] C,4z4 | 
[V:1] G4z4 | 
[V:2] e2E2F4 | 
[V:3] E4z4 | 
[V:4] z2G2A4 | 
[V:5] C8 | 
[V:6] z2C,2F,4 | 
[V:1] z2G2A4 | 
[V:2] E2c2c3d | 
[V:3] z2E2F4 | 
[V:4] G4z4 | 
[V:5] z2C2A,2F,2 | 
[V:6] C,4z4 | 
[V:1] G4E4 | 
[V:2] e6dc | 
[V:3] E2G4FE | 
[V:4] z8 | 
[V:5] C4C,4 | 
[V:6] z8 | 
[V:1] F4E4 | 
[V:2] d4c3B | 
[V:3] DCB,A,G,2A,2- | 
[V:4] z8 | 
[V:5] B,,4C,2C2- | 
[V:6] z8 | 
[V:1] C4D2D2 | 
[V:2] A2F2G4 | 
[V:3] A,B,C4=B,2 | 
[V:4] z8 | 
[V:5] CB,A,2G,2G,2 | 
[V:6] z8 | 
[V:1] C8 | 
[V:2] z2E4DC | 
[V:3] C8 | 
[V:4] z2G2A4 | 
[V:5] C,4z4 | 
[V:6] z2C,4B,,A,, | 
[V:1] z8 | 
[V:2] D2E2C2c2- | 
[V:3] z8 | 
[V:4] G4E4 | 
[V:5] z8 | 
[V:6] B,,2C,3B,,A,,G,, | 
[V:1] z8 | 
[V:2] cBA2G4- | 
[V:3] z8 | 
[V:4] F4E4 | 
[V:5] C4C4 | 
[V:6] F,,G,,A,,B,,C,D,E,2- | 
[V:1] z8 | 
[V:2] G2FEF4 | 
[V:3] z8 | 
[V:4] C4D2D2 | 
[V:5] C4F,4 | 
[V:6] E,D,C,4B,,2 | 
[V:1] z8 | 
[V:2] E4z2C2 | 
[V:3] z2G,2A,4 | 
[V:4] C4z4 | 
[V:5] z2C2C4 | 
[V:6] C,8 | 
[V:1] z8 | 
[V:2] D2E2F4 | 
[V:3] G,2C4B,2 | 
[V:4] z2C2D4 | 
[V:5] B,2A,G,F,4 | 
[V:6] z8 | 
[V:1] z8 | 
[V:2] E4z4 | 
[V:3] C4A,2B,2 | 
[V:4] C4F4 | 
[V:5] G,2A,4G,F, | 
[V:6] z2C,2D,4 | 
[V:1] z2C2D4 | 
[V:2] z8 | 
[V:3] C4z4 | 
[V:4] E2F4G2 | 
[V:5] G,2A,2D,4 | 
[V:6] C,2A,,2B,,4 | 
[V:1] C4F4 | 
[V:2] c4d4 | 
[V:3] z2C4B,2 | 
[V:4] A6GF | 
[V:5] E,4z4 | 
[V:6] A,,4D,4 | 
[V:1] E2A4GF | 
[V:2] e2f2c4 | 
[V:3] C4C3D | 
[V:4] G2F2c4 | 
[V:5] z4F,4 | 
[V:6] C,2F,4E,D, | 
[V:1] GAB3AGF | 
[V:2] z4d4 | 
[V:3] E2F3ED2 | 
[V:4] c2d3cBA | 
[V:5] E,2D,2F,2G,2 | 
[V:6] C,2B,,4B,,2 | 
[V:1] EDF4E2 | 
[V:2] e2d2e2c2- | 
[V:3] C2B,2C4 | 
[V:4] G2F2G4 | 
[V:5] z4z2G,2 | 
[V:6] C,2D,2C,4 | 
[V:1] F8 | 
[V:2] cBAG/F/E2C2 | 
[V:3] z2F,2A,4 | 
[V:4] F8 | 
[V:5] A,4C4 | 
[V:6] F,,8 | 
[V:1] z8 | 
[V:2] D2E2F4 | 
[V:3] G,2C4B,2 | 
[V:4] z2C2D4 | 
[V:5] B,2A,G,F,4 | 
[V:6] z8 | 
[V:1] z8 | 
[V:2] E4z4 | 
[V:3] C4A,2B,2 | 
[V:4] C4F4 | 
[V:5] G,2A,4G,F, | 
[V:6] z2C,2D,4 | 
[V:1] z2C2D4 | 
[V:2] z8 | 
[V:3] C4z4 | 
[V:4] E2F4G2 | 
[V:5] G,2A,2D,4 | 
[V:6] C,2A,,2B,,4 | 
[V:1] C4F4 | 
[V:2] c4d4 | 
[V:3] z2C4B,2 | 
[V:4] A6GF | 
[V:5] E,4z4 | 
[V:6] A,,4D,4 | 
[V:1] E2A4GF | 
[V:2] e2f2c4 | 
[V:3] C4C3D | 
[V:4] G2F2c4 | 
[V:5] z4F,4 | 
[V:6] C,2F,4E,D, | 
[V:1] GAB3AGF | 
[V:2] z4d4 | 
[V:3] E2F3ED2 | 
[V:4] c2d3cBA | 
[V:5] E,2D,2F,2G,2 | 
[V:6] C,2B,,4B,,2 | 
[V:1] EDF3EED | 
[V:2] e2d2e2c2- | 
[V:3] C2B,2C4 | 
[V:4] G2F2G4 | 
[V:5] z4z2G,2 | 
[V:6] C,2D,2C,4 | 
[V:1] F8- | 
[V:2] cBAGA2F2 | 
[V:3] C8- | 
[V:4] F8- | 
[V:5] A,2C3B,A,G, | 
[V:6] F,,8- | 
[V:1] F8- | 
[V:2] c6BA | 
[V:3] C8- | 
[V:4] F8- | 
[V:5] A,2F,2C4- | 
[V:6] F,,8- | 
[V:1] F8- | 
[V:2] A8- | 
[V:3] C8- | 
[V:4] F8- | 
[V:5] C2B,A,A,2F,2 | 
[V:6] F,,8- | 
[V:1] F8 |]  
[V:2] A8 |]  
[V:3] C8 |]  
[V:4] F8 |]  
[V:5] F,8 |]  
[V:6] F,,8 |]  



